images/church.svg

<?xml version="1.0" encoding="UTF-8" standalone="no"?>
<!-- Created with Inkscape (http://www.inkscape.org/) -->

<svg xmlns:dc="http://purl.org/dc/elements/1.1/" xmlns:cc="http://creativecommons.org/ns#" xmlns:rdf="http://www.w3.org/1999/02/22-rdf-syntax-ns#" xmlns:svg="http://www.w3.org/2000/svg" xmlns="http://www.w3.org/2000/svg" xmlns:sodipodi="http://sodipodi.sourceforge.net/DTD/sodipodi-0.dtd" xmlns:inkscape="http://www.inkscape.org/namespaces/inkscape" width="50" height="50" viewBox="0 0 13.229167 13.229167" version="1.1" id="svg8" inkscape:version="0.92.3 (2405546, 2018-03-11)" sodipodi:docname="church.svg">
  <defs id="defs2" />
  <sodipodi:namedview id="base" pagecolor="#ffffff" bordercolor="#666666" borderopacity="1.0" inkscape:pageopacity="0.0" inkscape:pageshadow="2" inkscape:zoom="32" inkscape:cx="6.043475" inkscape:cy="27.082115" inkscape:document-units="mm" inkscape:current-layer="svg8" showgrid="true" inkscape:window-width="1881" inkscape:window-height="1051" inkscape:window-x="0" inkscape:window-y="0" inkscape:window-maximized="1" inkscape:pagecheckerboard="true" units="px">
    <inkscape:grid type="xygrid" id="grid13930" units="px" spacingx="0.26458334" spacingy="0.26458334" />
  </sodipodi:namedview>
  <metadata id="metadata5">
    <rdf:RDF>
      <cc:Work rdf:about="">
        <dc:format>image/svg+xml</dc:format>
        <dc:type rdf:resource="http://purl.org/dc/dcmitype/StillImage" />
        <dc:title />
      </cc:Work>
    </rdf:RDF>
  </metadata>
  <path style="color:#000000;font-style:normal;font-variant:normal;font-weight:normal;font-stretch:normal;font-size:medium;line-height:normal;font-family:sans-serif;font-variant-ligatures:normal;font-variant-position:normal;font-variant-caps:normal;font-variant-numeric:normal;font-variant-alternates:normal;font-feature-settings:normal;text-indent:0;text-align:start;text-decoration:none;text-decoration-line:none;text-decoration-style:solid;text-decoration-color:#000000;letter-spacing:normal;word-spacing:normal;text-transform:none;writing-mode:lr-tb;direction:ltr;text-orientation:mixed;dominant-baseline:auto;baseline-shift:baseline;text-anchor:start;white-space:normal;shape-padding:0;clip-rule:nonzero;display:inline;overflow:visible;visibility:visible;opacity:0.5;isolation:auto;mix-blend-mode:normal;color-interpolation:sRGB;color-interpolation-filters:linearRGB;solid-color:#000000;solid-opacity:1;vector-effect:none;fill:none;fill-opacity:1;fill-rule:evenodd;stroke:#ffffff;stroke-width:0.79374999;stroke-linecap:round;stroke-linejoin:round;stroke-miterlimit:4;stroke-dasharray:none;stroke-dashoffset:0;stroke-opacity:1;color-rendering:auto;image-rendering:auto;shape-rendering:auto;text-rendering:auto;enable-background:accumulate" d="M 3.96875,4.7625 V 5.55625 H 3.175 V 5.82083 H 3.96875 V 6.6244 A 0.92237847,0.92237847 0 0 0 3.175,7.53701 A 0.92237847,0.92237847 0 0 0 4.0974242,8.45943 A 0.92237847,0.92237847 0 0 0 5.0198485,7.53701 A 0.92237847,0.92237847 0 0 0 4.2333333,6.62595 V 5.82083 H 5.0270833 V 5.55625 H 4.2333333 V 4.7625 Z" id="outline" inkscape:connector-curvature="0" />
  <path inkscape:connector-curvature="0" id="path859" d="M 3.96875,4.7625 V 5.55625 H 3.175 V 5.82083 H 3.96875 V 6.6244 A 0.92237847,0.92237847 0 0 0 3.175,7.53701 A 0.92237847,0.92237847 0 0 0 4.0974242,8.45943 A 0.92237847,0.92237847 0 0 0 5.0198485,7.53701 A 0.92237847,0.92237847 0 0 0 4.2333333,6.62595 V 5.82083 H 5.0270833 V 5.55625 H 4.2333333 V 4.7625 Z" style="color:#000000;font-style:normal;font-variant:normal;font-weight:normal;font-stretch:normal;font-size:medium;line-height:normal;font-family:sans-serif;font-variant-ligatures:normal;font-variant-position:normal;font-variant-caps:normal;font-variant-numeric:normal;font-variant-alternates:normal;font-feature-settings:normal;text-indent:0;text-align:start;text-decoration:none;text-decoration-line:none;text-decoration-style:solid;text-decoration-color:#000000;letter-spacing:normal;word-spacing:normal;text-transform:none;writing-mode:lr-tb;direction:ltr;text-orientation:mixed;dominant-baseline:auto;baseline-shift:baseline;text-anchor:start;white-space:normal;shape-padding:0;clip-rule:nonzero;display:inline;overflow:visible;visibility:visible;opacity:1;isolation:auto;mix-blend-mode:normal;color-interpolation:sRGB;color-interpolation-filters:linearRGB;solid-color:#000000;solid-opacity:1;vector-effect:none;fill:#000000;fill-opacity:1;fill-rule:evenodd;stroke:none;stroke-width:0.29581273px;stroke-linecap:butt;stroke-linejoin:miter;stroke-miterlimit:4;stroke-dasharray:none;stroke-dashoffset:0;stroke-opacity:1;color-rendering:auto;image-rendering:auto;shape-rendering:auto;text-rendering:auto;enable-background:accumulate" />
</svg>

<svg xmlns="http://www.w3.org/2000/svg" width="50" height="50" viewBox="0 0 13.229 13.229">
    <path d="M3.969 4.763v.793h-.794v.265h.794v.803a.922.922 0 00-.794.913.922.922 0 00.922.922.922.922 0 00.923-.922.922.922 0 00-.787-.911V5.82h.794v-.265h-.794v-.793z" color="#000" opacity=".5" fill="none" stroke="#fff" stroke-width=".794" stroke-linecap="round" stroke-linejoin="round"/>
    <path d="M3.969 4.763v.793h-.794v.265h.794v.803a.922.922 0 00-.794.913.922.922 0 00.922.922.922.922 0 00.923-.922.922.922 0 00-.787-.911V5.82h.794v-.265h-.794v-.793z" color="#000" fill-rule="evenodd"/>
</svg>
